korla/apps/symbolic/preferences-desktop-wallpaper-symbolic.svg

<svg style="clip-rule:evenodd;fill-rule:evenodd;stroke-linejoin:round;stroke-miterlimit:2" version="1.1" viewBox="0 0 16 16" xmlns="http://www.w3.org/2000/svg">
 <g transform="matrix(1.30403,0,0,1.30403,-2.23372,-2.24418)">
  <path d="m7 3v5h-4v2.411h9.696v-7.411h-5.696z" style="fill-opacity:.3;fill-rule:nonzero;fill:rgb(223,223,223)"/>
 </g>
 <g transform="matrix(1.30403,0,0,1.30403,-2.23372,-2.24418)">
  <path d="m6 3-3 4h3v-4z" style="fill-rule:nonzero;fill:rgb(223,223,223)"/>
 </g>
 <rect x="3" y="14.385" width="10" height="1.615" style="fill-opacity:.5;fill:rgb(223,223,223)"/>
 <path d="m2 0c-2 0-2 2-2 2v9s0 2 2 2h12s2 0 2-2v-9s0-2-2-2h-12zm-1.026 0.834h14.052v11.332h-14.052v-11.332z" style="fill:rgb(223,223,223)"/>
</svg>

<svg xmlns="http://www.w3.org/2000/svg" width="16" height="16" version="1.1">
 <path style="opacity:0.3;fill:#dfdfdf" d="M 7,3 V 8 H 3 V 10 H 13 V 3 Z"/>
 <path style="fill:#dfdfdf" d="M 6,3 3,7 H 6 Z"/>
 <path style="fill:#dfdfdf" d="M 2,0 C 0,0 0,2 0,2 V 11 C 0,11 0,13 2,13 H 14 C 14,13 16,13 16,11 V 2 C 16,2 16,0 14,0 Z M 2,2 H 14 V 11 H 2 Z M 3,15 V 16 H 13 V 15 C 13,14 12,14 12,14 H 4 C 4,14 3,14 3,15 Z"/>
</svg>
